svg/icon/sphtx.svg

<svg xmlns="http://www.w3.org/2000/svg" xmlns:xlink="http://www.w3.org/1999/xlink" width="32" height="32" viewBox="0 0 32 32">
  <defs>
    <linearGradient id="sphtx-c" x1="50%" x2="50%" y1="0%" y2="100%">
      <stop offset="0%" stop-color="#FFF" stop-opacity=".5"/>
      <stop offset="100%" stop-opacity=".5"/>
    </linearGradient>
    <circle id="sphtx-b" cx="16" cy="15" r="15"/>
    <filter id="sphtx-a" width="111.7%" height="111.7%" x="-5.8%" y="-4.2%" filterUnits="objectBoundingBox">
      <feOffset dy=".5" in="SourceAlpha" result="shadowOffsetOuter1"/>
      <feGaussianBlur in="shadowOffsetOuter1" result="shadowBlurOuter1" stdDeviation=".5"/>
      <feComposite in="shadowBlurOuter1" in2="SourceAlpha" operator="out" result="shadowBlurOuter1"/>
      <feColorMatrix in="shadowBlurOuter1" values="0 0 0 0 0   0 0 0 0 0   0 0 0 0 0  0 0 0 0.199473505 0"/>
    </filter>
    <path id="sphtx-e" d="M6,11.3909575 L6,11.0350114 L14.4174441,11.0350114 L14.4174441,11.3909575 L6,11.3909575 Z M6,10.3563752 L6,10 L14.4174441,10 L14.4174441,10.3563752 L6,10.3563752 Z M9.55052538,20.9963526 L9.55052538,12.1032788 L9.88764555,12.1032788 L9.88764555,20.9963526 L9.55052538,20.9963526 Z M10.5300017,20.9963526 L10.5300017,12.1032788 L10.8671218,12.1032788 L10.8671218,20.9963526 L10.5300017,20.9963526 Z M25.7615179,20.2680684 L21.9636357,16.2554682 L22.2018537,16.0037957 L25.9999391,20.0161813 L25.7615179,20.2680684 Z M16.5191854,10.0000429 L20.3172707,14.0126431 L20.0788496,14.2643157 L16.2807643,10.25193 L16.5191854,10.0000429 Z M25.0689593,20.9999356 L21.2710771,16.9873354 L21.5092952,16.7354483 L25.3073805,20.7480485 L25.0689593,20.9999356 Z M15.8266268,10.7318028 L19.6245091,14.744403 L19.3860879,14.9960756 L15.5880026,10.9836899 L15.8266268,10.7318028 Z M21.2484332,15.4998927 L21.4868544,15.2480056 L25.7615789,10.7318458 L26,10.9837329 L21.7252755,15.4998927 L21.4868544,15.7517798 L21.0325545,16.2317385 L20.7941333,16.4836256 L16.5194088,21 L16.2807846,20.7481129 L20.5557122,16.2317385 L20.7941333,15.9798514 L21.2484332,15.4998927 Z M20.7940724,14.5162671 L25.069,10.0001073 L25.3074211,10.2519944 L21.0324935,14.7681543 L20.7940724,15.0200414 L20.3399755,15.4997854 L20.1013513,15.7518871 L15.8266268,20.2680469 L15.5882057,20.0161598 L19.8629302,15.4997854 L20.1013513,15.2481129 L20.5556512,14.7681543 L20.7940724,14.5162671 Z"/>
    <filter id="sphtx-d" width="117.5%" height="131.8%" x="-8.8%" y="-11.4%" filterUnits="objectBoundingBox">
      <feOffset dy=".5" in="SourceAlpha" result="shadowOffsetOuter1"/>
      <feGaussianBlur in="shadowOffsetOuter1" result="shadowBlurOuter1" stdDeviation=".5"/>
      <feColorMatrix in="shadowBlurOuter1" values="0 0 0 0 0   0 0 0 0 0   0 0 0 0 0  0 0 0 0.204257246 0"/>
    </filter>
  </defs>
  <g fill="none" fill-rule="evenodd">
    <use fill="#000" filter="url(#sphtx-a)" xlink:href="#sphtx-b"/>
    <use fill="#00B098" xlink:href="#sphtx-b"/>
    <use fill="url(#sphtx-c)" style="mix-blend-mode:soft-light" xlink:href="#sphtx-b"/>
    <circle cx="16" cy="15" r="14.5" stroke="#000" stroke-opacity=".097"/>
    <g fill-rule="nonzero">
      <use fill="#000" filter="url(#sphtx-d)" xlink:href="#sphtx-e"/>
      <use fill="#FFF" fill-rule="evenodd" xlink:href="#sphtx-e"/>
    </g>
  </g>
</svg>

<svg height="32" width="32" xmlns="http://www.w3.org/2000/svg" xmlns:xlink="http://www.w3.org/1999/xlink"><defs><linearGradient id="c" x1="50%" x2="50%" y1="0%" y2="100%"><stop offset="0" stop-color="#fff" stop-opacity=".5"/><stop offset="1" stop-opacity=".5"/></linearGradient><circle id="b" cx="16" cy="15" r="15"/><filter id="a" height="111.7%" width="111.7%" x="-5.8%" y="-4.2%"><feOffset dy=".5" in="SourceAlpha" result="shadowOffsetOuter1"/><feGaussianBlur in="shadowOffsetOuter1" result="shadowBlurOuter1" stdDeviation=".5"/><feComposite in="shadowBlurOuter1" in2="SourceAlpha" operator="out" result="shadowBlurOuter1"/><feColorMatrix in="shadowBlurOuter1" values="0 0 0 0 0 0 0 0 0 0 0 0 0 0 0 0 0 0 0.199473505 0"/></filter><path id="e" d="M6 11.391v-.356h8.417v.356zm0-1.035V10h8.417v.356zm3.55 10.64v-8.893h.338v8.893zm.98 0v-8.893h.337v8.893zm15.232-.728l-3.798-4.013.238-.251L26 20.016zM16.519 10l3.798 4.013-.238.251-3.798-4.012zm8.55 11l-3.798-4.013.238-.252 3.798 4.013zm-9.242-10.268l3.798 4.012-.239.252-3.798-4.012zm5.421 4.768l.239-.252 4.275-4.516.238.252-4.275 4.516-.238.252-.454.48-.239.252L16.52 21l-.238-.252 4.275-4.516.238-.252zm-.454-.984L25.07 10l.238.252-4.275 4.516-.238.252-.454.48-.239.252-4.274 4.516-.239-.252 4.275-4.516.238-.252.455-.48z"/><filter id="d" height="131.8%" width="117.5%" x="-8.8%" y="-11.4%"><feOffset dy=".5" in="SourceAlpha" result="shadowOffsetOuter1"/><feGaussianBlur in="shadowOffsetOuter1" result="shadowBlurOuter1" stdDeviation=".5"/><feColorMatrix in="shadowBlurOuter1" values="0 0 0 0 0 0 0 0 0 0 0 0 0 0 0 0 0 0 0.204257246 0"/></filter></defs><g fill="none" fill-rule="evenodd"><use fill="#000" filter="url(#a)" xlink:href="#b"/><use fill="#00b098" xlink:href="#b"/><use fill="url(#c)" xlink:href="#b"/><circle cx="16" cy="15" r="14.5" stroke="#000" stroke-opacity=".097"/><g fill-rule="nonzero"><use fill="#000" filter="url(#d)" xlink:href="#e"/><use fill="#fff" fill-rule="evenodd" xlink:href="#e"/></g></g></svg>
